coreui/free/cil-voice-over-record.svg

<svg viewBox="0 0 512 512" xmlns="http://www.w3.org/2000/svg"><g><path d="M342.322 104.837l0 0c29.74 36.77 29.8 89.32.13 126.16l24.94 20.02v0c39.09-48.55 39.01-117.8-.18-166.27Z"/><path d="M432.14 32.4l-24.99 20.15v-.001c54.36 67.22 54.46 163.25.24 230.59l25.03 20.1v0c63.52-79.15 63.4-191.84-.29-270.844Z"/><path d="M347.6 343.656l-72.822-47.334 27.45-50.334v0c6.39-11.76 9.75-24.93 9.76-38.31v-79.69 0c0-61.86-50.15-112-112-112 -61.86 0-112 50.14-112 112v79.681 -.001c0 13.38 3.36 26.55 9.76 38.3l27.455 50.33 -72.83 47.334 -.001-.001c-22.75 14.72-36.46 39.98-36.4 67.07v85.26h368v-85.27 0c.05-27.1-13.66-52.36-36.4-67.08ZM352 464H48v-53.27h-.001c-.04-16.26 8.19-31.42 21.84-40.25l97.66-63.48 -41.65-76.34h-.001c-3.84-7.06-5.86-14.96-5.87-22.99v-79.69h0c0-44.19 35.81-80 80-80 44.18 0 80 35.81 80 80v79.681 0c-.01 8.03-2.03 15.93-5.87 22.98l-41.64 76.34 97.66 63.47v-.001c13.64 8.83 21.86 23.99 21.83 40.24Z"/></g></svg>

<svg xmlns="http://www.w3.org/2000/svg" viewBox="0 0 512 512">
  <path fill="var(--ci-primary-color, currentColor)" d="M342.322,104.837A100.443,100.443,0,0,1,342.457,231L367.4,251.02a132.373,132.373,0,0,0-.178-166.261Z" class="ci-primary"/>
  <path fill="var(--ci-primary-color, currentColor)" d="M432.147,32.4,407.158,52.55a183.6,183.6,0,0,1,.248,230.594l25.03,20.1A216.053,216.053,0,0,0,432.147,32.4Z" class="ci-primary"/>
  <path fill="var(--ci-primary-color, currentColor)" d="M347.6,343.656l-72.822-47.334,27.455-50.334A80.23,80.23,0,0,0,312,207.681V128a112,112,0,0,0-224,0v79.681a80.236,80.236,0,0,0,9.768,38.308l27.455,50.333L52.4,343.656A79.725,79.725,0,0,0,16,410.732V496H384V410.732A79.725,79.725,0,0,0,347.6,343.656ZM352,464H48V410.732a47.836,47.836,0,0,1,21.841-40.246l97.661-63.48-41.641-76.34A48.146,48.146,0,0,1,120,207.681V128a80,80,0,0,1,160,0v79.681a48.139,48.139,0,0,1-5.861,22.984L232.5,307.007l97.662,63.479A47.838,47.838,0,0,1,352,410.732Z" class="ci-primary"/>
</svg>
